symbolic/22x22/apps/i-nex.svg

<svg xmlns="http://www.w3.org/2000/svg" width="22" height="22" version="1.1">
 <rect style="opacity:0.2" width="20" height="20" x="1" y="1.5" rx="1" ry="1"/>
 <path style="fill:#2b855b" d="m 2,1 h 18 c 0.554,0 1,0.446 1,1 v 18 c 0,0.554 -0.446,1 -1,1 H 5.1468645 L 2.4125412,20.463696 C 1.8688995,20.357068 2.0189544,20.243784 1.8663367,19.711221 L 1,16.688119 V 2 C 1,1.446 1.446,1 2,1 Z"/>
 <path style="opacity:0.1;fill:#ffffff" d="M 2,1 C 1.446,1 1,1.446 1,2 v 0.5 c 0,-0.554 0.446,-1 1,-1 h 18 c 0.554,0 1,0.446 1,1 V 2 C 21,1.446 20.554,1 20,1 Z"/>
 <rect style="opacity:0.2" width="14" height="14" x="4" y="4.5" rx=".7" ry=".7"/>
 <rect style="fill:#c1c1c1" width="14" height="14" x="4" y="4" rx=".7" ry=".7"/>
 <path style="fill:#ffb923" d="M 1,16.609375 V 20 c 0,0.554 0.446,1 1,1 h 3.390625 z"/>
 <path style="opacity:0.2;fill:#ffffff" d="M 4.7001955,4 C 4.3123955,4 4,4.3123955 4,4.7001955 v 0.5 C 4,4.8123955 4.3123955,4.5 4.7001955,4.5 H 17.299804 C 17.687604,4.5 18,4.8123955 18,5.2001955 v -0.5 C 18,4.3123955 17.687604,4 17.299804,4 Z"/>
 <path style="opacity:0.1" d="m 1,16.609375 v 0.5 L 4.890625,21 h 0.5 z"/>
 <rect style="fill:#4e4e4e" width="2" height="7" x="10" y="9"/>
 <rect style="fill:#4e4e4e" width="2" height="2" x="10" y="6"/>
</svg>

<svg xmlns="http://www.w3.org/2000/svg" width="22" height="22"><rect style="opacity:.2" width="20" height="20" x="1" y="1.5" rx="1" ry="1"/><path style="fill:#2b855b" d="M2 1h18c.554 0 1 .446 1 1v18c0 .554-.446 1-1 1H5.147l-2.734-.536c-.544-.107-.394-.22-.547-.753L1 16.688V2c0-.554.446-1 1-1z"/><path style="opacity:.1;fill:#fff" d="M2 1c-.554 0-1 .446-1 1v.5c0-.554.446-1 1-1h18c.554 0 1 .446 1 1V2c0-.554-.446-1-1-1z"/><rect style="opacity:.2" width="14" height="14" x="4" y="4.5" rx=".7" ry=".7"/><rect style="fill:#c1c1c1" width="14" height="14" x="4" y="4" rx=".7" ry=".7"/><path style="fill:#ffb923" d="M1 16.61V20c0 .554.446 1 1 1h3.39z"/><path style="opacity:.2;fill:#fff" d="M4.7 4c-.388 0-.7.312-.7.7v.5c0-.388.312-.7.7-.7h12.6c.388 0 .7.312.7.7v-.5c0-.388-.312-.7-.7-.7z"/><path style="opacity:.1" d="M1 16.61v.5L4.89 21h.5z"/><path style="fill:#4e4e4e" d="M10 9h2v7h-2zM10 6h2v2h-2z"/></svg>
